apps/scalable/nasc.svg

<svg xmlns="http://www.w3.org/2000/svg" style="isolation:isolate" width="256" height="256"><defs><filter id="a" width="400%" height="400%" x="-200%" y="-200%" color-interpolation-filters="sRGB" filterUnits="objectBoundingBox"><feGaussianBlur xmlns="http://www.w3.org/2000/svg" in="SourceGraphic" stdDeviation="4.294"/><feOffset xmlns="http://www.w3.org/2000/svg" dy="4" result="pf_100_offsetBlur"/><feFlood xmlns="http://www.w3.org/2000/svg" flood-opacity=".4"/><feComposite xmlns="http://www.w3.org/2000/svg" in2="pf_100_offsetBlur" operator="in" result="pf_100_dropShadow"/><feBlend xmlns="http://www.w3.org/2000/svg" in="SourceGraphic" in2="pf_100_dropShadow"/></filter></defs><path fill="#F2F2F2" d="M165.689 11.95c74.056 0 84.639 10.557 84.639 84.544v59.251c0 73.986-10.583 84.543-84.639 84.543h-75.37c-74.055 0-84.639-10.557-84.639-84.543V96.494c0-73.987 10.584-84.544 84.639-84.544h75.37z" filter="url(#a)"/><path fill="#BC1938" fill-rule="evenodd" d="M165.689 11.95c74.056 0 84.639 10.557 84.639 84.544v59.251c0 73.986-10.583 84.543-84.639 84.543h-75.37c-74.055 0-84.639-10.557-84.639-84.543V96.494c0-73.987 10.584-84.544 84.639-84.544h75.37zm.011 10c4.31 0 8.62.04 12.93.13 3.8.09 7.6.24 11.39.45 3.31.19 6.6.46 9.89.82 2.83.31 5.64.72 8.43 1.24 2.35.43 4.68.99 6.98 1.66 1.91.56 3.78 1.25 5.6 2.07 1.52.68 2.98 1.49 4.37 2.42 1.23.83 2.37 1.77 3.42 2.81 1.05 1.05 1.99 2.19 2.82 3.42.93 1.38 1.74 2.84 2.42 4.36a43.11 43.11 0 0 1 2.07 5.59c.67 2.29 1.23 4.62 1.66 6.97.52 2.79.94 5.6 1.24 8.42.36 3.28.64 6.58.83 9.88.21 3.79.36 7.58.44 11.38.1 4.3.14 8.61.14 12.91v59.28c0 4.3-.04 8.61-.14 12.91-.08 3.8-.23 7.59-.44 11.38-.19 3.3-.47 6.6-.83 9.88-.3 2.82-.72 5.63-1.24 8.42-.43 2.35-.99 4.67-1.66 6.97a43.11 43.11 0 0 1-2.07 5.59c-.68 1.52-1.49 2.97-2.42 4.36-.83 1.22-1.77 2.37-2.82 3.42a23.67 23.67 0 0 1-3.42 2.81c-1.39.93-2.85 1.74-4.37 2.42-1.82.82-3.69 1.51-5.6 2.07-2.3.67-4.63 1.23-6.98 1.66-2.79.52-5.6.93-8.43 1.24-3.29.36-6.59.63-9.89.82-3.79.21-7.59.36-11.39.44-4.31.1-8.62.14-12.93.14H90.32h-.01c-4.31 0-8.62-.04-12.93-.14-3.8-.08-7.6-.23-11.39-.44-3.31-.19-6.61-.46-9.9-.82-2.82-.31-5.63-.72-8.42-1.24-2.36-.43-4.69-.99-6.98-1.66-1.91-.56-3.79-1.25-5.6-2.07-1.52-.68-2.99-1.49-4.37-2.42a23.14 23.14 0 0 1-3.42-2.81c-1.05-1.05-1.99-2.2-2.82-3.42a30.48 30.48 0 0 1-2.43-4.36c-.81-1.82-1.5-3.68-2.06-5.59-.68-2.3-1.23-4.62-1.67-6.97-.51-2.79-.93-5.6-1.23-8.42-.37-3.28-.64-6.58-.83-9.88-.21-3.79-.36-7.58-.45-11.38-.09-4.3-.13-8.61-.13-12.91V96.49v-.01c0-4.3.04-8.61.13-12.91.09-3.8.24-7.59.45-11.38.19-3.3.46-6.6.83-9.88.3-2.82.72-5.63 1.23-8.42.44-2.35.99-4.68 1.67-6.97.56-1.91 1.25-3.77 2.06-5.59.69-1.52 1.5-2.98 2.43-4.36.83-1.23 1.77-2.37 2.82-3.42a23.14 23.14 0 0 1 3.42-2.81c1.38-.93 2.85-1.74 4.37-2.42 1.81-.82 3.69-1.51 5.6-2.07 2.29-.67 4.62-1.23 6.98-1.66 2.79-.52 5.6-.93 8.42-1.24 3.29-.36 6.59-.63 9.9-.82 3.79-.21 7.59-.36 11.39-.45 4.31-.09 8.62-.13 12.93-.13H165.7z"/><path fill="#BC1938" fill-rule="evenodd" d="M195.5 112.926h-135V72.713h135v40.213zm0 68.361h-135v-40.213h135v40.213z"/><path fill="#FFF" d="M249.643 83.58L44.234 236.61c11.562 2.311 26.426 3.019 45.523 3.019h75.37c74.055 0 84.639-10.558 84.639-84.544V95.834c0-4.303-.041-8.37-.123-12.254z" opacity=".1"/><g opacity=".4"><linearGradient id="b" x1=".517" x2=".517" y2="1"><stop offset="0%" stop-color="#fff"/><stop offset="12.5%" stop-opacity=".098" stop-color="#fff"/><stop offset="92.5%" stop-opacity=".098"/><stop offset="100%" stop-opacity=".498"/></linearGradient><path fill="none" stroke="url(#b)" stroke-linecap="round" stroke-linejoin="round" stroke-width="4.077" d="M165.685 11.947c74.055 0 84.639 10.557 84.639 84.544v59.251c0 73.986-10.584 84.543-84.639 84.543h-75.37c-74.055 0-84.639-10.557-84.639-84.543V96.491c0-73.987 10.584-84.544 84.639-84.544h75.37z" vector-effect="non-scaling-stroke"/></g></svg>

<svg xmlns="http://www.w3.org/2000/svg" style="isolation:isolate" width="256" height="256" viewBox="0 0 256 256">
 <defs>
  <filter id="hKCDCk99HR0aPPz1ScvRKYCRIS9fuxoG" width="400%" height="400%" x="-200%" y="-200%" color-interpolation-filters="sRGB" filterUnits="objectBoundingBox">
   <feGaussianBlur xmlns="http://www.w3.org/2000/svg" in="SourceGraphic" stdDeviation="4.294"/>
   <feOffset xmlns="http://www.w3.org/2000/svg" dx="0" dy="4" result="pf_100_offsetBlur"/>
   <feFlood xmlns="http://www.w3.org/2000/svg" flood-opacity=".4"/>
   <feComposite xmlns="http://www.w3.org/2000/svg" in2="pf_100_offsetBlur" operator="in" result="pf_100_dropShadow"/>
   <feBlend xmlns="http://www.w3.org/2000/svg" in="SourceGraphic" in2="pf_100_dropShadow" mode="normal"/>
  </filter>
 </defs>
 <g filter="url(#hKCDCk99HR0aPPz1ScvRKYCRIS9fuxoG)">
  <path fill="#F2F2F2" d="M 165.689 11.95 C 239.745 11.95 250.328 22.507 250.328 96.494 L 250.328 155.745 C 250.328 229.731 239.745 240.288 165.689 240.288 L 90.319 240.288 C 16.264 240.288 5.68 229.731 5.68 155.745 L 5.68 96.494 C 5.68 22.507 16.264 11.95 90.319 11.95 L 165.689 11.95 Z"/>
 </g>
 <path fill="#BC1938" fill-rule="evenodd" d="M 165.689 11.95 C 239.745 11.95 250.328 22.507 250.328 96.494 L 250.328 155.745 C 250.328 229.731 239.745 240.288 165.689 240.288 L 90.319 240.288 C 16.264 240.288 5.68 229.731 5.68 155.745 L 5.68 96.494 C 5.68 22.507 16.264 11.95 90.319 11.95 L 165.689 11.95 Z M 165.7 21.95 C 170.01 21.95 174.32 21.99 178.63 22.08 C 182.43 22.17 186.23 22.32 190.02 22.53 C 193.33 22.72 196.62 22.99 199.91 23.35 C 202.74 23.66 205.55 24.07 208.34 24.59 C 210.69 25.02 213.02 25.58 215.32 26.25 C 217.23 26.81 219.1 27.5 220.92 28.32 C 222.44 29 223.9 29.81 225.29 30.74 C 226.52 31.57 227.66 32.51 228.71 33.55 C 229.76 34.6 230.7 35.74 231.53 36.97 C 232.46 38.35 233.27 39.81 233.95 41.33 C 234.77 43.15 235.46 45.01 236.02 46.92 C 236.69 49.21 237.25 51.54 237.68 53.89 C 238.2 56.68 238.62 59.49 238.92 62.31 C 239.28 65.59 239.56 68.89 239.75 72.19 C 239.96 75.98 240.11 79.77 240.19 83.57 C 240.29 87.87 240.33 92.18 240.33 96.48 C 240.33 96.49 240.33 96.49 240.33 96.49 L 240.33 155.74 C 240.33 155.75 240.33 155.75 240.33 155.76 C 240.33 160.06 240.29 164.37 240.19 168.67 C 240.11 172.47 239.96 176.26 239.75 180.05 C 239.56 183.35 239.28 186.65 238.92 189.93 C 238.62 192.75 238.2 195.56 237.68 198.35 C 237.25 200.7 236.69 203.02 236.02 205.32 C 235.46 207.23 234.77 209.09 233.95 210.91 C 233.27 212.43 232.46 213.88 231.53 215.27 C 230.7 216.49 229.76 217.64 228.71 218.69 C 227.66 219.73 226.52 220.67 225.29 221.5 C 223.9 222.43 222.44 223.24 220.92 223.92 C 219.1 224.74 217.23 225.43 215.32 225.99 C 213.02 226.66 210.69 227.22 208.34 227.65 C 205.55 228.17 202.74 228.58 199.91 228.89 C 196.62 229.25 193.32 229.52 190.02 229.71 C 186.23 229.92 182.43 230.07 178.63 230.15 C 174.32 230.25 170.01 230.29 165.7 230.29 C 165.7 230.29 165.69 230.29 165.69 230.29 L 90.32 230.29 C 90.32 230.29 90.31 230.29 90.31 230.29 C 86 230.29 81.69 230.25 77.38 230.15 C 73.58 230.07 69.78 229.92 65.99 229.71 C 62.68 229.52 59.38 229.25 56.09 228.89 C 53.27 228.58 50.46 228.17 47.67 227.65 C 45.31 227.22 42.98 226.66 40.69 225.99 C 38.78 225.43 36.9 224.74 35.09 223.92 C 33.57 223.24 32.1 222.43 30.72 221.5 C 29.49 220.67 28.34 219.73 27.3 218.69 C 26.25 217.64 25.31 216.49 24.48 215.27 C 23.55 213.88 22.74 212.43 22.05 210.91 C 21.24 209.09 20.55 207.23 19.99 205.32 C 19.31 203.02 18.76 200.7 18.32 198.35 C 17.81 195.56 17.39 192.75 17.09 189.93 C 16.72 186.65 16.45 183.35 16.26 180.05 C 16.05 176.26 15.9 172.47 15.81 168.67 C 15.72 164.37 15.68 160.06 15.68 155.76 C 15.68 155.75 15.68 155.75 15.68 155.74 L 15.68 96.49 C 15.68 96.49 15.68 96.49 15.68 96.48 C 15.68 92.18 15.72 87.87 15.81 83.57 C 15.9 79.77 16.05 75.98 16.26 72.19 C 16.45 68.89 16.72 65.59 17.09 62.31 C 17.39 59.49 17.81 56.68 18.32 53.89 C 18.76 51.54 19.31 49.21 19.99 46.92 C 20.55 45.01 21.24 43.15 22.05 41.33 C 22.74 39.81 23.55 38.35 24.48 36.97 C 25.31 35.74 26.25 34.6 27.3 33.55 C 28.34 32.51 29.49 31.57 30.72 30.74 C 32.1 29.81 33.57 29 35.09 28.32 C 36.9 27.5 38.78 26.81 40.69 26.25 C 42.98 25.58 45.31 25.02 47.67 24.59 C 50.46 24.07 53.27 23.66 56.09 23.35 C 59.38 22.99 62.68 22.72 65.99 22.53 C 69.78 22.32 73.58 22.17 77.38 22.08 C 81.69 21.99 86 21.95 90.31 21.95 C 90.31 21.95 90.32 21.95 90.32 21.95 L 165.69 21.95 C 165.69 21.95 165.7 21.95 165.7 21.95 Z"/>
 <path fill="#BC1938" fill-rule="evenodd" d="M 195.5 112.926 L 60.5 112.926 L 60.5 72.713 L 195.5 72.713 L 195.5 112.926 Z M 195.5 181.287 L 60.5 181.287 L 60.5 141.074 L 195.5 141.074 L 195.5 181.287 Z"/>
 <g opacity=".1">
  <path fill="#FFFFFF" d="M 249.643 83.58 L 44.234 236.61 C 55.796 238.921 70.66 239.629 89.757 239.629 L 165.127 239.629 C 239.182 239.629 249.766 229.071 249.766 155.085 L 249.766 95.834 C 249.766 91.531 249.725 87.464 249.643 83.58 L 249.643 83.58 Z"/>
 </g>
 <g opacity=".4">
  <linearGradient id="_lgradient_24" x1=".517" x2=".517" y1="0" y2="1">
   <stop offset="0%" style="stop-color:rgb(255,255,255)"/>
   <stop offset="12.5%" stop-opacity=".098" style="stop-color:rgb(255,255,255)"/>
   <stop offset="92.5%" stop-opacity=".098" style="stop-color:rgb(0,0,0)"/>
   <stop offset="100%" stop-opacity=".498" style="stop-color:rgb(0,0,0)"/>
  </linearGradient>
  <path fill="none" stroke="url(#_lgradient_24)" stroke-linecap="round" stroke-linejoin="round" stroke-width="4.077" d="M 165.685 11.947 C 239.74 11.947 250.324 22.504 250.324 96.491 L 250.324 155.742 C 250.324 229.728 239.74 240.285 165.685 240.285 L 90.315 240.285 C 16.26 240.285 5.676 229.728 5.676 155.742 L 5.676 96.491 C 5.676 22.504 16.26 11.947 90.315 11.947 L 165.685 11.947 Z" vector-effect="non-scaling-stroke"/>
 </g>
</svg>
